resources/svg/document-user.svg

<svg xmlns="http://www.w3.org/2000/svg" viewBox="0 0 24 24" fill="currentColor"><path fill="none" stroke="currentColor" stroke-width="2" d="M4.99787498,8.99999999 L4.99787498,0.999999992 L19.4999998,0.999999992 L22.9999998,4.50000005 L23,23 L16,23 M18,1 L18,6 L23,6 M8,11 C6.34325,11 5,12.34325 5,14 C5,15.65675 6.34325,17 8,17 C9.65675,17 11,15.65675 11,14 C11,12.34325 9.65675,11 8,11 L8,11 Z M3,23 L3,22 C3,18 6,17 8,17 C10,17 13,18 13,22 L13,23 L3,23 Z"/></svg>

<svg viewBox="0 0 24 24"><path fill="none" stroke="currentColor" stroke-width="2" d="M4.998 9V1H19.5L23 4.5V23h-7m2-22v5h5M8 11a3 3 0 1 0 0 6a3 3 0 0 0 0-6h0zM3 23v-1c0-4 3-5 5-5s5 1 5 5v1H3z"/></svg>
